usr/share/icons/biglinux-icons-material/24/actions/im-qq.svg

<svg xmlns="http://www.w3.org/2000/svg" viewBox="0 0 24 24">
  <defs id="defs3051">
    <style type="text/css" id="current-color-scheme">
      .ColorScheme-Text {
        color:#dedede;
      }
      </style>
  </defs>
 <path style="fill:currentColor;fill-opacity:1;stroke:none" 
     d="M 12 4 C 7.568 4 4 7.568 4 12 C 4 16.432 7.568 20 12 20 C 14.035317 20 15.882005 19.241107 17.291016 17.998047 L 19.292969 20 L 20 19.292969 L 17.998047 17.291016 C 19.241107 15.882005 20 14.035317 20 12 C 20 7.568 16.432 4 12 4 z M 12 5 C 15.878 5 19 8.122 19 12 C 19 13.758463 18.354271 15.357001 17.291016 16.583984 L 15.707031 15 L 15 15.707031 L 16.583984 17.291016 C 15.357001 18.354271 13.758463 19 12 19 C 8.122 19 5 15.878 5 12 C 5 8.122 8.122 5 12 5 z "
     class="ColorScheme-Text"
     />
</svg>

<svg xmlns="http://www.w3.org/2000/svg" viewBox="0 0 24 24"><path d="M12 4c-4.432 0-8 3.568-8 8s3.568 8 8 8a7.963 7.963 0 0 0 5.291-2.002L19.293 20l.707-.707-2.002-2.002A7.963 7.963 0 0 0 20 12c0-4.432-3.568-8-8-8zm0 1c3.878 0 7 3.122 7 7a6.97 6.97 0 0 1-1.709 4.584L15.707 15l-.707.707 1.584 1.584A6.97 6.97 0 0 1 12 19c-3.878 0-7-3.122-7-7s3.122-7 7-7z" style="fill:currentColor;fill-opacity:1;stroke:none;color:#dedede"/></svg>
